icons/feed-add-user-16.svg

<svg width="17" height="16" viewBox="0 0 17 16" fill="none" xmlns="http://www.w3.org/2000/svg">
<path fill-rule="evenodd" clip-rule="evenodd" d="M8.5 0C4.08172 0 0.5 3.58172 0.5 8C0.5 12.4183 4.08172 16 8.5 16C12.9183 16 16.5 12.4183 16.5 8C16.5 3.58172 12.9183 0 8.5 0ZM9.5625 4.3125C9.5625 3.76022 9.11478 3.3125 8.5625 3.3125C8.01022 3.3125 7.5625 3.76022 7.5625 4.3125V7.0625H4.8125C4.26022 7.0625 3.8125 7.51022 3.8125 8.0625C3.8125 8.61478 4.26022 9.0625 4.8125 9.0625H7.5625V11.8125C7.5625 12.3648 8.01022 12.8125 8.5625 12.8125C9.11478 12.8125 9.5625 12.3648 9.5625 11.8125V9.0625H12.3125C12.8648 9.0625 13.3125 8.61478 13.3125 8.0625C13.3125 7.51022 12.8648 7.0625 12.3125 7.0625H9.5625V4.3125Z" fill="black" style="fill:black;fill:black;fill-opacity:1;"/>
</svg>

<svg xmlns="http://www.w3.org/2000/svg" width="17" height="16" viewBox="0 0 17 16"><path d="M8.5 0a8 8 0 1 1 0 16 8 8 0 0 1 0-16Zm1.062 4.312a1 1 0 1 0-2 0v2.75h-2.75a1 1 0 0 0 0 2h2.75v2.75a1 1 0 1 0 2 0v-2.75h2.75a1 1 0 1 0 0-2h-2.75Z"/></svg>
